X: 1
T: Maggie's Fling
M: 4/4
L: 1/8
R: barndance
K: Bmin
|: B>A |
F>B (3BBB d>B (3cBA | E>A (3AAA c>dc>A | 
F>B (3BBB d>cd<b | a>f (3edc B2 :|
| a>^g |
(3fff B>f d>fB<f | (3eee c>f e>cA<a | 
(3fff B>f d<fB>b | a>fe>c B>a^g<a |
(3fff B>f d>fB>f | e<ae>f (3eee A>c | 
B<FB>c d<cd>b | a>fe>c B2 ||
